src/telerik-icons/solid/list-unordered-outline.svg

<?xml version="1.0" encoding="utf-8"?>
<svg xmlns="http://www.w3.org/2000/svg" width="512" height="512" viewBox="0 0 512 512">
  <path d="M192 80h288v32H192V80zm0 160h288v32H192v-32zm0 160h288v32H192v-32zM80 80c8.8 0 16 7.2 16 16s-7.2 16-16 16-16-7.2-16-16 7.2-16 16-16m0-32c-26.5 0-48 21.5-48 48s21.5 48 48 48 48-21.5 48-48-21.5-48-48-48zm0 192c8.8 0 16 7.2 16 16s-7.2 16-16 16-16-7.2-16-16 7.2-16 16-16m0-32c-26.5 0-48 21.5-48 48s21.5 48 48 48 48-21.5 48-48-21.5-48-48-48zm0 192c8.8 0 16 7.2 16 16s-7.2 16-16 16-16-7.2-16-16 7.2-16 16-16m0-32c-26.5 0-48 21.5-48 48s21.5 48 48 48 48-21.5 48-48-21.5-48-48-48z"/>
</svg>

<?xml version="1.0" encoding="utf-8"?>
<!-- Generator: Adobe Illustrator 26.0.2, SVG Export Plug-In . SVG Version: 6.00 Build 0)  -->
<svg xmlns="http://www.w3.org/2000/svg" width="512" height="512" viewBox="0 0 512 512">
<path d="M192,80h288v32H192V80z M192,240h288v32H192V240z M192,400h288v32H192V400z M80,80c8.8,0,16,7.2,16,16s-7.2,16-16,16
	s-16-7.2-16-16S71.2,80,80,80 M80,48c-26.5,0-48,21.5-48,48s21.5,48,48,48s48-21.5,48-48S106.5,48,80,48L80,48z M80,240
	c8.8,0,16,7.2,16,16s-7.2,16-16,16s-16-7.2-16-16S71.2,240,80,240 M80,208c-26.5,0-48,21.5-48,48s21.5,48,48,48s48-21.5,48-48
	S106.5,208,80,208L80,208z M80,400c8.8,0,16,7.2,16,16s-7.2,16-16,16s-16-7.2-16-16S71.2,400,80,400 M80,368c-26.5,0-48,21.5-48,48
	s21.5,48,48,48s48-21.5,48-48S106.5,368,80,368L80,368z" />
</svg>
